X: 2
T:The High Tea
M:4/4
L:1/8
Q:150
C:Michelle Soinne
R:Hornpipe
N:Named to commemorate the generous hospitality of the magnificent
N:Northumbrian fiddler Willie Taylor and his wife, Nancy.
K:G
|G>A|:B2B>c B>AG>A|B2d2e4|d2g2B2d2|c>BA2A2G>A|
B2B>c B>AG>A|B2d2e4|d2g2B2G2|1A4G2G>A:|2A4G2!g>f
|:e2d>c B>AG>A|B2d2e4|d2g2B2d2|1c>BA2A2g>f|
e2d>c B>AG>A|B2d2e4|d2g2B2G2|A4G2g>f
:|2!c>BA2A2G>A|B2B>c B>AG>A|B2d2e4|d2g2B2G2|A4G2||
